app/images/star-gold.svg

<svg baseProfile="basic" xmlns="http://www.w3.org/2000/svg" viewBox="0 0 72 66"><style type="text/css">.st0{fill:#C0B07F;}</style><path class="st0" d="M71.2 25.5h-26l-8.2-24.5-8.3 24.5h-27.9l22 15.1-8.6 24.4 22.6-15.2 21 15.2-8.4-24.4 21.8-15.1zm-18.4 32.8l-16-11.7-17.5 11.7 6.5-18.8-16.8-11.5h21.7l6.3-18.8 6.3 18.8h19.8l-16.7 11.5 6.4 18.8zm6.3-29h-16.7l-5.4-16-5.4 16h-18.6l14.3 9.8-5.5 16 15-9.9 13.4 9.9-5.5-16 14.4-9.8z"/></svg>

<?xml version="1.0" encoding="utf-8"?>
<!-- Generator: Adobe Illustrator 22.0.0, SVG Export Plug-In . SVG Version: 6.00 Build 0)  -->
<svg version="1.1" baseProfile="basic" id="Layer_1"
	 xmlns="http://www.w3.org/2000/svg" xmlns:xlink="http://www.w3.org/1999/xlink" x="0px" y="0px" viewBox="0 0 72 66"
	 xml:space="preserve">
<style type="text/css">
	.st0{fill:#C0B07F;}
</style>
<g>
	<g>
		<path class="st0" d="M71.2,25.5h-26L37,1l-8.3,24.5H0.8l22,15.1L14.2,65l22.6-15.2l21,15.2l-8.4-24.4L71.2,25.5z M52.8,58.3
			L36.8,46.6L19.3,58.3l6.5-18.8L9,28h21.7L37,9.2L43.3,28h19.8L46.4,39.5L52.8,58.3z M59.1,29.3H42.4l-5.4-16l-5.4,16H13l14.3,9.8
			l-5.5,16l15-9.9l13.4,9.9l-5.5-16L59.1,29.3z"/>
	</g>
</g>
</svg>
